X:3071
T:Clara Polka,The. GHW.017
M:2/4
L:1/16
Q:110
S:George H.Watson,MS,Swanton Abbott,Norfolk,1850-1880
R:Polka
O:England
A:Norfolk
N:DC  marked at end if tun
Z:vmp.Taz Tarry
K:D
FG|A2f2 fed2|A2f2 fed2|A2f2e2d2|c2B2B2 FG|A2f2 ggfe|A2f2 fed2|A2e2 efe2|
d
2d2d2:|!
K:A
:cd|eeee f2e2|e2E2c2f2|e2E2B2f2|e2A2c2 cd|eeee f3e|e2E2c2f2|e2E2B2e2|A2A
2
A2:|!
K:G
dc|B2G2 GFG2|B2d2 g3f|e2A2 A^GA2|c2e2 a3g|f2d2 d^cd2|ede2 fef2|g2Bc dcBA
|G2AB cdef|!
g2G2 GFG2|B2d2 g3f|e2A2 A^GA2|c2e2 a3g|f2d2 d^cd2|ede2 fef2|g2Bc dcBA|G2
G2G2:|


